X: 202
T: Birnes Hornpipe
R: hornpipe, reel
M: C
L: 1/8
Z: 2012 John Chambers <jc:trillian.mit.edu>
B: J. Anderson "Budget of Strathspeys, Reels and Country Dances" (Early 1800s) p.20 #2
F: http://imslp.org/wiki/Anderson%27s_Budget_of_Strathspeys,_Reels_and_Country_Dances_(Various)
N: The first pickup notes should be a triplet.
K: D
(A/B/c) |\
(dA).F.A (BG).E.G | (FA) d4 c2 | B2(gf) (fe)(ed) | c2A2 A3G |
(FA).B.c (dA).G.F | Edcd ecAg | fgaf bgec | d2d2d2 |]
(fe) |\
(df).b.a (gf).e.d | (ce).a.g (fe).d.c | Bdgf edcd | B2B2 B3c |
d2(de) dAGF | Edcd ecAg | fgaf bgec | d2d2d2 |]

%%sep 2 1 500
%%sep 1 1 500

